X:1
T:Gonfalon Royal, LM
T:Percy Carter Buck (1871-1947)
T:Gonfalon Royal, LM
C:Percy Carter Buck (1871-1947)
%%score ( 1 2 ) ( 3 4 )
L:1/8
M:none
K:G
V:1 treble 
V:2 treble 
V:3 bass 
V:4 bass 
V:1
 [B,-D]2 | [B,E]2 [CG]2 [Ec]2 (BA) | B2 G2 C2 D2 | [CE]2 E2 A2 [D-F]2 | =D2 G2 c2 BA | %5
 [DA]6 [=FA]2 | d2 B2 G3 G | c2 A2 [^DF]2 | [^CE][DF]GA BA [E^c]2 [DB]2 | [EA]2 [CE]2 [A,D]6 |] %10
V:2
 x2 | x6 D2- | D4 E4- | x2 C4 x2 | =D4 x ^C2 x | x8 | =F4 E4- | E4 x2 | x2 E2 =F2 x4 | x10 |] %10
V:3
 G,2 | [E,G,]2 [C,E,]2 [A,,F,]2 [C,E,]2 | G,,2 B,,2 C,2 [B,,^G,]2 | %3
 [A,,A,]2 [G,,A,]2 [F,,D,]2 [C,A,-]2 | A,2 z2 E,,2 [E,G,]2 | G,2 F,2 =F,2 DC | B,C D2- D2 CB, | %7
 A,B, C2 [B,,B,]2 | [B,,B,-]2 [E,B,]2 [D,=F,]2 [A,,A,]2 ^F,^G, | [C,A,]2 [A,,=G,-]2 (G,2 F,4) |] %10
V:4
 G,2 | x8 | ^G,6 x2 | x8 | B,,4 G,4- | D,6 D,2 | G,,4 C,4 | F,,4 x2 | x8 B,,2 | x4 D,6 |] %10

